X: 26770
T: Mill, Mill O, The
R: barndance
M: 4/4
K: Dmajor
de|f2 A>B A3 d|B>A (3Bcd e2 de|f2 A2 gfed|B3c d2:|
A2|d>efg a3 a|ba gf e3 A|d>efg a3 (3b/a/g/|f3 g a2
A2|d>efg a3 d'|ba gf e2 de|f2 A>B A2 (3fed|B3c d2||

